X: 40808
T: Traditional
R: reel
M: 4/4
K: Dmajor
|:FDFA dcBA|BdAB GEEG|1 FDFA dcBA|DGEC FDDA:|2 agfe fdec|dBAG FDDg||
|:faag ba=gf|faaf gfed|1 faag ba=gf|fdec dDDg:|2 agfe fdec|dBAG FDD2||

